X:1
T:Beare Island
L:1/8
M:4/4
I:linebreak $
K:D
V:1 treble 
V:1
 (3EEE |: EB ^GBAG Ec | dBcA be ee | d2 ed AdFd | GE FD EDB,D | EB,EF G3 A |$ BAGA Be ef | %7
 geaf gfec | dBAF E z (3EEE :| e e^d |: eBef geed |$ (3Bcd Ad Fd Dd | Beef geed | (3efe ^df eBef | %14
 edBc dBcd | BcdB AdFA |$ GB (3BBB AGFA | (3GFE ^DF Ee e^d :| %18
